Origami/32x32/apps/applications-interfacedesign.svg

<svg width="32" height="32" version="1" xmlns="http://www.w3.org/2000/svg">
 <path d="M 2,7 V 27.611111 C 2,28.381111 2.623875,29 3.4,29 H 28.6007 C 29.3763,29 30,28.38125 30,27.611111 V 7 Z" style="opacity:.2"/>
 <rect x="4.8" y="20.55" width="22.4" height="2.8" rx="1.066" ry="1.161" style="opacity:.2"/>
 <path d="M 2,6 V 26.611111 C 2,27.381111 2.623875,28 3.4,28 H 28.6007 C 29.3763,28 30,27.38125 30,26.611111 V 6 Z" style="fill:#c7c7c7"/>
 <path d="m3.4 3.0000001c-0.77616 0-1.4 0.6190972-1.4 1.3885416v1.6114583h28v-1.6114583c0-0.7694444-0.6237-1.3885416-1.4-1.3885416z" style="fill:#5a6367"/>
 <rect x="5" y="21" width="22" height="3" rx="1.047" ry="1.244" style="opacity:.2"/>
 <rect x="5" y="20" width="22" height="3" rx="1.047" ry="1.244" style="fill:#ffffff"/>
 <path d="m24 22.5c0 1.931998-1.568002 3.5-3.5 3.5-1.932 0-3.5-1.568002-3.5-3.5 0-1.932 1.568-3.5 3.5-3.5 1.931998 0 3.5 1.568 3.5 3.5z" style="fill-rule:evenodd;opacity:.1"/>
 <path d="m24 21.5c0 1.931998-1.568002 3.5-3.5 3.5-1.932 0-3.5-1.568002-3.5-3.5 0-1.932 1.568-3.5 3.5-3.5 1.931998 0 3.5 1.568 3.5 3.5z" style="fill-rule:evenodd;fill:#5294e2"/>
 <circle cx="6.5" cy="11.5" r="1.5" style="opacity:.2"/>
 <circle cx="6.5" cy="10.5" r="1.5" style="fill:#fffff7"/>
 <rect x="11" y="15" width="3" height="3" rx=".472" ry=".516" style="opacity:.1"/>
 <rect x="11" y="14" width="3" height="3" rx=".472" ry=".516" style="fill:#5294e2"/>
 <circle cx="6.5" cy="16.5" r="1.5" style="opacity:.1"/>
 <circle cx="6.5" cy="15.5" r="1.5" style="fill:#5294e2"/>
 <rect x="11" y="10" width="3" height="3" rx=".472" ry=".516" style="opacity:.2"/>
 <rect x="11" y="9" width="3" height="3" rx=".472" ry=".516" style="fill:#ffffff"/>
 <path d="M 3.4003906 3 C 2.6242306 3 2 3.6192275 2 4.3886719 L 2 5.3886719 C 2 4.6192275 2.6242306 4 3.4003906 4 L 28.599609 4 C 29.375909 4 30 4.6192275 30 5.3886719 L 30 4.3886719 C 30 3.6192275 29.375909 3 28.599609 3 L 3.4003906 3 z" style="fill:#ffffff;opacity:.1"/>
</svg>

<svg xmlns="http://www.w3.org/2000/svg" width="32" height="32" version="1">
 <path style="opacity:0.2" d="M 2,7 V 27.611111 C 2,28.381111 2.623875,29 3.4,29 H 28.6007 C 29.3763,29 30,28.38125 30,27.611111 V 7 Z"/>
 <rect style="opacity:0.2" width="22.4" height="2.8" x="4.8" y="20.55" rx="1.066" ry="1.161"/>
 <path style="fill:#c7c7c7" d="M 2,6 V 26.611111 C 2,27.381111 2.623875,28 3.4,28 H 28.6007 C 29.3763,28 30,27.38125 30,26.611111 V 6 Z"/>
 <path style="fill:#5a6367" d="m 3.4,3.0000001 c -0.77616,0 -1.4,0.6190972 -1.4,1.3885416 V 6 H 30 V 4.3885417 C 30,3.6190973 29.3763,3.0000001 28.6,3.0000001 Z"/>
 <rect style="opacity:0.2" width="22" height="3" x="5" y="21" rx="1.047" ry="1.244"/>
 <rect style="fill:#ffffff" width="22" height="3" x="5" y="20" rx="1.047" ry="1.244"/>
 <path style="opacity:0.1;fill-rule:evenodd" d="M 24,22.5 C 24,24.431998 22.431998,26 20.5,26 18.568,26 17,24.431998 17,22.5 17,20.568 18.568,19 20.5,19 c 1.931998,0 3.5,1.568 3.5,3.5 z"/>
 <path style="fill:#5294e2;fill-rule:evenodd" d="M 24,21.5 C 24,23.431998 22.431998,25 20.5,25 18.568,25 17,23.431998 17,21.5 17,19.568 18.568,18 20.5,18 c 1.931998,0 3.5,1.568 3.5,3.5 z"/>
 <circle style="opacity:0.2" cx="6.5" cy="11.5" r="1.5"/>
 <circle style="fill:#fffff7" cx="6.5" cy="10.5" r="1.5"/>
 <rect style="opacity:0.1" width="3" height="3" x="11" y="15" rx=".472" ry=".516"/>
 <rect style="fill:#5294e2" width="3" height="3" x="11" y="14" rx=".472" ry=".516"/>
 <circle style="opacity:0.1" cx="6.5" cy="16.5" r="1.5"/>
 <circle style="fill:#5294e2" cx="6.5" cy="15.5" r="1.5"/>
 <rect style="opacity:0.2" width="3" height="3" x="11" y="10" rx=".472" ry=".516"/>
 <rect style="fill:#ffffff" width="3" height="3" x="11" y="9" rx=".472" ry=".516"/>
 <path style="fill:#ffffff;opacity:0.1" d="M 3.4003906 3 C 2.6242306 3 2 3.6192275 2 4.3886719 L 2 5.3886719 C 2 4.6192275 2.6242306 4 3.4003906 4 L 28.599609 4 C 29.375909 4 30 4.6192275 30 5.3886719 L 30 4.3886719 C 30 3.6192275 29.375909 3 28.599609 3 L 3.4003906 3 z"/>
</svg>
